X:1308
T:Kiss the Maid Behind the Barrel
R:Reel
N:Collected by Kennedy
B:O'Neill's 1308
Z:Transcribed by Trish O'Neil
M:C|
L:1/8
K:G
DGGc AGGF|DGGB cAGF|DGGc AGAc|defd cAFA:|
dg a3gfg ag a3gfg|dg a3gfg agfe|df g3fef af g3fef|defd cAFA|
dg a3gfg ag a3gfg|dg a3gfg agfg|afge fdec|dfeg fdcA||
G2dG BGdG|G2dG cAFA|G2dG AGAc|defd cAFA|
G2dG BGdG|G2dG cAFA|G2GBA2Ac|defd cAFA||
B2BGA2Ac|BABc dedc|B2BGA2Ac|defd cAFA :|
